X:1
T:Julia
T:Julia
T:Copyright © CPDL
T:Copyright © CPDL
T:Copyright © CPDL
T:Copyright © CPDL
Z:Copyright © CPDL
%%score 1 { ( 2 3 ) ( 4 5 ) }
L:1/8
Q:1/4=85
M:4/4
K:G
V:1 treble nm="P1"
V:2 treble nm="P2"
V:3 treble 
V:4 bass nm="P3"
V:5 bass 
V:1
"^Editor: John Henry Fowler""^(  Revision:   5 - 5 - 2008  )""^Daintily." z | %1
w: |
"^From \"English Lyrics\" -  Set 7 -  Number 5""^Lyrics from Robert Herrick  - ( c 1591 - 1674 )" z8 | %2
w: |
 z4 z2 z!p! D | E"^Charles Hubert Hastings Parry"G E>F"^( 1848 - 1918 )" GB d z/ c/ | BGEG A3 E | %5
w: Some|asked me where the ru- bies grew, And|no- thing did I say, But|
 GFED GB z!p!!<(! G/!<)!A/ |"^rit." !>!B3 A F>"^a tempo"E D2 | z8 | z4 z2 z!p! D | %9
w: with my fin- ger point- ed to The|lips of Jul- li- a.||Some|
 EG E>F!<(! GB!<)!"^rit." d z/ c/ |"^a tempo" BGEG A3 D | GFED GB E>G |"^poco rit." B>A GE D3 z | %13
w: asked how pearls did grow, and where, Then|spake I to my girl, To|part her lips, and show me there The|qua- re- lets of pearl.|
 z8 | z4 z2 z!p! D | EG E>F!<(! GB!<)! d>c | BGEG A3 D | GFE"^rit."D !>!cB A>G | %18
w: |One|asked me where the ro- ses grew, I|bade him not go seek; But|forth- with made my Ju- lia show A|
!p!"^a tempo" d4- d"^rit."BDA | G3 z z4 | z8 | z8 |] %22
w: bud _ on ei- ther|cheek.|||
V:2
 !>![Gdg] | !>!.[EGe]2 !>!.[Fd]2!>(! (!>![B,GB]>AG)!>)![G,C-E-] | %2
 [A,CD] (!>!A2 [G,CE]) [A,CD]3 [G,B,D] | (EDE)(C [G,D]) [DB]2 ([CDA] | %4
 [B,DG]) (DE)G ([CA][A,E][CA])[A,E] | z [A,DF] z [A,DA] z [DGd] z [GBg] | %6
 z [DGB] z [^CE] z ([DF] A,)[DAd] | !>!.[DGB]2 !>!.[A,EA]2!>(! (!>![A,DF]>E D)!>)![B,DB] | %8
 ([A,DF]>E)D!>!.[DGd] ([A,DF]>E D).[G,D] | %9
 z/ (E/ D/G,/) z/ (E/ C/A,/) z/ (D/ G/B,/) z/ (D/ A/A,/) | %10
 z/ (D/ G/G,/) z/ (E/ G/G,/) z/ (E/ A/A,/) z/ (D/ F/A,/) | %11
 z/ (D/ G/G,/) z/ (F/ A/C/) z/ (G/ B/B,/) z/ (D/ G/B,/) | %12
 z [F,A,D] z [G,A,^C] [F,A,D]3"^a tempo, vivace." !>![Gdg] | %13
 !>!.[EGe]2 !>!.[Fd]2 ([B,GB]>AG)([G,CE] | [A,CD])!mf! (!>!A2 [G,CE]) [A,CD]3 z/ [G,B,D]/ | %15
 z/ [G,CE]/ z/ [G,DG]/ z/ [A,CE]/ z/ [A,EF]/ z/ [G,EG]/ z/ [EGB]/ z/ [DAd]/ z/ [CDA]/ | %16
 z/ [B,DB]/ z/ [DG]/ z/ [G,CE]/ z/ [G,DG]/ z/ [CEA]/ z/ [CEG]/ z/ [A,DF]/ z/ [DFA]/ | %17
 z/ [G,DG]/ z/ D/ z/ [CFA]/"^rit." z/ D/ z/ [DGd]/!<(! z/ G/ z/ [^CGA]/ z/!<)! [CE]/ | %18
 z/"^a tempo" [GBg]/ z/ [DGd]/ z/ [GB]/ z/ [EG]/"^rit." [DFd]2 z [Fd] | %19
 z/ !>![GBg]/ z/ [DBd]/"^dim."!>(! z/ [DB]/ z/ [CDA]/ z/ [B,DG]/ z/ [B,D]/[K:bass] z/ [D,B,D]/ z/!>)! [D,A,C]/ | %20
 z/ [D,G,B,]/ z/ [E,G,E]/ z/ [D,G,B,]/ z/ [^C,G,]/ z/ [D,G,B,]/ z/ [E,G,B,E]/ z/ [D,G,B,]/ z/ [E,G,A,]/ | %21
 .[D,G,B,]2 .[G,B,G]2 z4 |] %22
V:3
 x | x8 | x8 | G,3 A, x4 | x G,2 [G,D] x4 | x8 | x8 | x8 | x8 | x8 | x8 | x8 | x8 | x8 | x8 | x8 | %16
 x8 | x8 | x8 | x6[K:bass] x2 | x8 | x8 |] %22
V:4
!f! !>![B,,G,D] | !>!.[C,G,C]2 !>!.[D,A,]2"^poco dim."!>(! !>!.[E,G,]3!>)! ([E,,C,E,] | %2
 [F,,D,]) z!mf! z [E,,G,,] [F,,D,]3!p! G,, | (C,B,,C,)A,, (B,,G,,E,,)(F,, | %4
 G,,)(B,,C,B,,) (A,,C,A,,)C, | z2 (C,[D,F,] B,,[D,G,] G,,)[D,G,] | %6
"^rit." (E,,[E,G,] A,,)[G,A,]"^a tempo" (D,,!<(![A,,G,]D,!<)!!mf!F,) | G,D,, ^C,D,, (D,D,, F,)B,, | %8
 (D,D,,F,)[B,,G,] (D,D,,!p! D,)B,, | (C,B,,C,).A,, (B,,G,,"^rit."E,,).F,, | %10
"^a tempo" (G,,B,,C,).B,, (A,,C,D,).C, | (B,,D,)(A,,D,) (G,,D,E,)E,, | %12
"^poco rit." [A,,,A,,]2 A,,2 (D,,A,,.D,)!f![B,,G,D] | %13
 [C,G,C].C,,.[D,A,].D,, .[E,G,].E,, z .[E,,C,E,] | [F,,D,] z!mf! z [E,,C,E,] [F,,D,]3!p! G,, | %15
 (C,B,,A,,).C, (E,E,,F,,).F, | .G,(B,,C,B,, A,,)(C,D,C,) | (B,,D,A,,D, G,,!<(!D,E,,)!<)!E, | %18
!p! D,,B,D^C =C2 z C |"^a tempo" G,(G,,!>(!E,,F,, G,,B,,)(E,,!>)!.F,, | %20
 .G,,).E,,.G,,.E,, .G,,.E,,.G,,.=C,, | .[G,,,G,,]2 .[G,,D,]2 z4 |] %22
V:5
 x | x8 | x8 | x8 | x8 | D,2 C,2 B,,2 G,,2 | E,,2 A,,2 D,,2 x2 | x8 | x8 | x8 | x8 | %11
 B,,2 A,,2 G,,3 E,, | x4 D,,2 x2 | x8 | x8 | x8 | x8 | B,,2 A,,2 G,,2 E,,2 | D,,2 z2 D,2 x D, | %19
 x8 | x8 | x8 |] %22

